X:1
T:Dorothy
T:Dorothy
T:Old English Dance
T:Seymour Smith
C:Seymour Smith
%%score { ( 1 3 ) | 2 }
L:1/8
Q:1/4=120
M:4/4
K:G
V:1 treble nm="Piano" snm="Pno."
V:3 treble 
V:2 bass 
V:1
 z4{/^C} D4 |{/^c} d4{/^c'} d'4 |!mp! [GBd]2 [DG]2 [Ge]2 [EGA]2 | (cd/c/BA) (GB) D2 | (EGDG EGDG) | %5
 (c2 B2!>(! A4)!>)! | [GBd]2 [DG]2 [Ge]2 [EGA]2 | (cd/c/BA) (GB) D2 |"_cresc." (EFGA Bcde) | %9
!mf! [Bdg]2 [Adf]2 !^![Bdg]4 |!f! [GBd]2 [DG]2 [Ge]2 [EGA]2 | (cd/c/BA) (GB) D2 |!mf! (EGDG EGDG) | %13
 (c2 B2!>(! A4)!>)! |!f! [GBd]2 [DG]2 [Ge]2 [EGA]2 | cd/c/BA (GB) D2 |"_cresc." EFGA Bcde | %17
!ff! [Bdg]2 [Adf]2 !^![Bdg]4 |!mp! (BcB^A) (Begb) | (agfb) (g2 e2) | %20
[K:bass]!f! (CB,A,C) (B,A,G,B,) | (A,G,F,B,) (G,2 E,2) |[K:treble]!mp! (BcB^A) (Begb) | %23
 (agfb) (g2 e2) |[K:bass]!f! (CB,A,C) (B,A,G,B,) | (A,G,F,B,) E,4 | %26
[K:treble]!ff! [GBd]2 [DG]2 [Ge]2 [EGA]2 | (cd/c/BA) (GB) D2 |!mf! (EGDG EGDG) | %29
 (c2 B2!>(! A4)!>)! |!f! [GBd]2 [DG]2 [Ge]2 [EGA]2 | (cd/c/BA) (GB) D2 |"_cresc." EFGA Bcde | %33
!ff! [Bdg]2 [Adf]2 [Bdg]4 ||[K:C]!ff! !^![G,G]4 !^![A,A]4 |!mf! (cBAB c2 G2) | (A2 c2 f2 e2) | %37
!>(! ed^cd e2!>)! d2 |!ff! [G,G]4 [A,A]4 |!mf! (cBAB c2 G2) | (A2 c2 f2 e2) | (eded c4) | %42
!pp! (c'a^ge') (c'e' a2) | (c'a^ge') (c'e' a2) | d'e'd'e' c'd'c'd' | bc'ab!>(! (^g2 e'2)!>)! | %46
 (c'a^ge') (c'e' a2) | (c'a^ge') (c'e' a2) | d'e'd'e' c'd'c'd' |!>(! bc'bc' a4!>)! | %50
!ff! [G,G]4 [A,A]4 |!mf! (cBAB c2 G2) | (A2 c2 f2 e2) |!>(! (ed^cd) !>!e2 !>!d2!>)! | %54
!ff! !^![G,G]4 !^![A,A]4 |!mf! (cBAB c2 G2) | (A2 c2 f2 e2) | (eded c4) |] %58
[K:G]!f! [GBd]2 [DG]2 [Ge]2 [EGA]2 | (cd/c/BA) (GB) D2 |!mf! (EGDG EGDG) | (c2 B2!>(! A4)!>)! | %62
!f! [GBd]2 [DG]2 [Ge]2 [EGA]2 | (cd/c/BA) (GB) D2 |!<(! (EFGA Bcde)!<)! | %65
!ff! [Bdg]2 [Adf]2 [Bdg]4 |!mp! (BcB^A) (Begb) | (agfb) (g2 e2) |[K:bass]!f! (CB,A,C) (B,A,G,B,) | %69
 (A,G,F,B,) (G,2 E,2) |[K:treble]!mp! (BcB^A) (Begb) | (agfb) (g2 e2) | %72
[K:bass]!f! (CB,A,C) (B,A,G,B,) | (A,G,F,B,) E,4 |[K:treble]!ff! [GBd]2 [DG]2 [Ge]2 [EGA]2 | %75
 (cd/c/BA) (GB) D2 |!mf! (EGDG EGDG) | (c2 B2!>(! A4)!>)! |!f! [GBd]2 [DG]2 [Ge]2 [EGA]2 | %79
 (cd/c/BA) (GB) D2 |!<(!"_cresc." (EFGA Bcde)!<)! | %81
!ff! [Bg]2 [Af]2 !fermata![GBeg]2!mp![Q:1/4=90]"^dolce e meno mosso." [GA^ce]2 | [GBd]4 A3 B | %83
[Q:1/4=120]"_a tempo" [B,DG]8 |!ff! !^![GBdg]8 | !^!!fermata![B,DG]8 |] %86
V:2
{/^C,} D,4 z4 | z8 | [G,,G,]2 [B,,B,]2 [C,C]2 [C,,C,]2 | [D,,D,]2 [F,CD]2 [G,,G,]2 [G,B,]2 | %4
 C2 B,2 C2 B,2 | A,2 G,2 (D,2 D,,2) | [G,,G,]2 [B,,B,]2 [C,C]2 [C,,C,]2 | %7
 [D,,D,]2 [F,CD]2 [G,,G,]2 [G,B,]2 | (C,D,E,F, G,A,B,C) | D2 D,2 !^![G,,G,]4 | %10
 [G,,G,]2 [B,,B,]2 [C,C]2 [C,,C,]2 | [D,,D,]2 [F,CD]2 [G,,G,]2 [G,B,]2 | C2 B,2 C2 B,2 | %13
 A,2 G,2 (D,2 D,,2) | [G,,G,]2 [B,,B,]2 [C,C]2 [C,,C,]2 | [D,,D,]2 [F,CD]2 [G,,G,]2 [G,B,]2 | %16
 C,D,E,F, G,A,B,C | D2 D,2 !^![G,,G,]4 |[K:treble] [EG]2 [EG]2 [EG]2 [EG]2 | %19
 [B,^DA]2 [B,DA]2 [EG]2 [EG]2 |[K:treble] [EA]2 [EA]2 [EG]2 [EG]2 | [^DF]2 [DF]2 [EG]2 [EG]2 | %22
 [EG]2 [EG]2 [EG]2 [EG]2 | [B,^DA]2 [B,DA]2 [EG]2 [EG]2 | [EA]2 [EA]2 [EG]2 [EG]2 | %25
 [^DF]2 [DF]2 [EG]4 |[K:bass] [G,,G,]2 [B,,B,]2 [C,C]2 [C,,C,]2 | %27
 [D,,D,]2 [F,CD]2 [G,,G,]2 [G,B,]2 | C2 B,2 C2 B,2 | A,2 G,2 (D,2 D,,2) | %30
 [G,,G,]2 [B,,B,]2 [C,C]2 [C,,C,]2 | [D,,D,]2 [F,CD]2 [G,,G,]2 [G,B,]2 | C,D,E,F, G,A,B,C | %33
 D2 D,2 [G,,G,]4 ||[K:C] [C,,C,]4 [F,,F,]4 | [G,,G,]2 [DF]2 [C,,C,]2 [CE]2 | %36
 [F,,F,]2 [E,,E,]2 [D,,D,]2 [C,,C,]2 | [F,,F,]2 [^F,,^F,]2 [G,,G,]2 [G,,,G,,]2 | %38
 [C,,C,]4 [F,,F,]4 | [G,,G,]2 [DF]2 [C,,C,]2 [CE]2 | [F,,F,]2 [E,,E,]2 [D,,D,]2 [C,,C,]2 | %41
 [F,,F,]2 [G,,G,]2 [C,,C,]4 |[K:treble] .[Ac]2 .[Bd]2 !>![Ac]4 | .[Ac]2 .[Bd]2 !>![Ac]4 | %44
 .[fa]2 .[fa]2 .[eg]2 .[eg]2 | .[df]2 .[ce]2 !>![Bd]4 | .[Ac]2 .[Bd]2 !>![Ac]4 | %47
 .[Ac]2 .[Bd]2 !>![Ac]4 | [DFA]4 [EAc]4 | ((([E^Gd]4 [Ac]4))) |[K:bass] [C,,C,]4 [F,,F,]4 | %51
 [G,,G,]2 [DF]2 [C,,C,]2 [CE]2 | [F,,F,]2 [E,,E,]2 [D,,D,]2 [C,,C,]2 | %53
 [F,,F,]2 [^F,,^F,]2 !>![G,,G,]2 !>![G,,,G,,]2 | [C,,C,]4 [F,,F,]4 | %55
 [G,,G,]2 [DF]2 [C,,C,]2 [CE]2 | [F,,F,]2 [E,,E,]2 [D,,D,]2 [C,,C,]2 | %57
 [F,,F,]2 [G,,G,]2 [C,,C,]4 |][K:G] [G,,G,]2 [B,,B,]2 [C,C]2 [C,,C,]2 | %59
 [D,,D,]2 [F,CD]2 [G,,G,]2 [G,B,]2 | C2 B,2 C2 B,2 | A,2 G,2 D,2 D,,2 | %62
 [G,,G,]2 [B,,B,]2 [C,C]2 [C,,C,]2 | [D,,D,]2 [F,CD]2 [G,,G,]2 [G,B,]2 | (C,D,E,F, G,A,B,C) | %65
 D2 D,2 [G,,G,]4 |[K:treble] [EG]2 [EG]2 [EG]2 [EG]2 | [B,^DA]2 [B,DA]2 [EG]2 [EG]2 | %68
[K:treble] [EA]2 [EA]2 [EG]2 [EG]2 | [^DF]2 [DF]2 [EG]2 [EG]2 | [EG]2 [EG]2 [EG]2 [EG]2 | %71
 [B,^DA]2 [B,DA]2 [EG]2 [EG]2 | [EA]2 [EA]2 [EG]2 [EG]2 | [^DF]2 [DF]2 [EG]4 | %74
[K:bass] [G,,G,]2 [B,,B,]2 [C,C]2 [C,,C,]2 | [D,,D,]2 [F,CD]2 [G,,G,]2 [G,B,]2 | C2 B,2 C2 B,2 | %77
 A,2 G,2 D,2 D,,2 | [G,,G,]2 [B,,B,]2 [C,C]2 [C,,C,]2 | [D,,D,]2 [F,CD]2 [G,,G,]2 [G,B,]2 | %80
 (C,D,E,F, G,A,B,C) | D2 D,2 !fermata![E,,E,]2 [A,,,A,,]2 | [D,,D,]4 [D,,D,]4 | [G,,G,]8 | %84
 !^![G,,G,]8 | !^!!fermata![G,,G,]8 |] %86
V:3
 x8 | x8 | x8 | x8 | E2 D2 E2 D2 | FDGD (G2 F2) | x8 | x8 | x8 | x8 | x8 | x8 | E2 D2 E2 D2 | %13
 FDGD (G2 F2) | x8 | x8 | x8 | x8 | x8 | x8 |[K:bass] x8 | x8 |[K:treble] x8 | x8 |[K:bass] x8 | %25
 x8 |[K:treble] x8 | x8 | E2 D2 E2 D2 | FDGD (G2 F2) | x8 | x8 | x8 | x8 || %34
[K:C] z2 [CE]2 z2 [CF]2 | x8 | F!<(!CGC BGcG!<)! | A4 [G=c]2 [GB]2 | z2 [CE]2 z2 [CF]2 | x8 | %40
 FCGC BGcG | A2 [FB]2 E4 | x8 | x8 | x8 | x4 [e^g]4 | x8 | x8 | x8 | x4 x4 | z2 [CE]2 z2 [CF]2 | %51
 x8 | F!<(!CGC BGcG!<)! | (A4 !>![G=c]2) !>![GB]2 | z2 [CE]2 z2 [CF]2 | x8 | F!<(!CGC BGcG!<)! | %57
 A2 [FB]2 E4 |][K:G] x8 | x8 | E2 D2 E2 D2 | FDGD (G2 F2) | x8 | x8 | x8 | x8 | x8 | x8 | %68
[K:bass] x8 | x8 |[K:treble] x8 | x8 |[K:bass] x8 | x8 |[K:treble] x8 | x8 | E2 D2 E2 D2 | %77
 FDGD (G2 F2) | x8 | x8 | x8 | x8 | x4 [CDF]4 | x8 | x8 | x8 |] %86

